X: 2
T:Cantiga 169 'a la Arrixaca'
M:3/4
L:1/4
Q:50
C:Alfonso X el Sabio
S:Jose Mª Hernansáez
R:Cantiga
K:C
D | EDC | DDE | G2 G | AA _B | AAG | !
FGE | F3 |  G/2A/2 AG | F G/2F/2 E | D C2 | C C D | !
 FFD | EDC | D2 c | A c2 | d cB| A2G | A !
A _B|  (4AGFG | _B A G | A2 c| A c2| dcB| A2 G| !
AA _B | (4AGFG| _BAG| A2D | EDC | DDE | G2 !
G | AA_B| AGA/2G/2 | F G E | F3 |  G/2 A/2 AG| F G/2F/2 !
E | D C2 | C C D | F F D| E D C| D2 |

